X: 18877
T: In Memory Of Coleman
R: reel
M: 4/4
K: Gdorian
|:DGBd cBGF|DF~F2 CFAF|DGBd c2Bc|1 dBcA BGGF:|2 dBcA BGGA||
B2fB FBfB|FBfB AGFA|B2fB FBfB|cBAc BGGA|
B2fB FBfB|bBfB AD^FA|GB (3ABc Bg~g2|fdcA (3BAG AF||

